X:10482
T:Maud Millar
R:reel
D:Mary Bergin: Feadoga Stain
Z:id:hn-reel-183
M:C|
K:Edor
edBA GBDE|G2BG dGBd|eBdB A2GA|1 Beed e2gf:|2 Beed ~e3z||
dega bg~g2|agef ~g3e|dega bg~g2|aged gage|
dega bg~g2|agef ~g3a|b2af gfed|Beed ~e3g||
